WPMap/assets/css/svg/icon_castle.svg

<svg width="68" height="59" viewBox="0 0 68 59" fill="none" xmlns="http://www.w3.org/2000/svg">
<path d="M58.4435 11.2654L58.2994 6.68285H56.3785V8.59223H54.4096L54.4576 6.68285H52.5367L52.6328 8.59223H50.6158V6.68285H48.6949L48.6469 8.59223V11.3131L48.5509 21.0032H58.2994L58.4435 11.2654ZM55.322 17.996H51.8644V13.3657H55.322V17.996ZM6.62712 23.8196V25.729H63.1497V23.8196H6.62712ZM23.6271 14.3681L23.8672 20.9555H45.9096V14.2727H43.0282V16.7549L39.2825 17.1367L39.3305 14.2727H36.4492L36.4011 17.1367H32.4633V14.2727H29.5819V17.1367L26.7006 16.7549V14.2727L23.6271 14.3681ZM21.1299 11.2654L20.9859 6.68285H19.065V8.59223H17.096L17.1441 6.68285H15.2232L15.3192 8.59223H13.3023V6.68285H11.3814L11.3333 8.59223V11.3131L11.3814 21.0032H21.1299V11.2654ZM14.5028 13.3657H17.9605V17.996H14.5028V13.3657ZM34.3842 0L22.9068 12.3633H46.8701L34.3842 0ZM56.8588 50.6464C57.7232 50.9329 57.7232 51.3147 58.6836 51.6966V31.8867L62.1412 27.5906L36.113 27.3997H33.0395L7.58757 27.5906L10.5169 31.8867V51.2193C11.0452 51.0283 10.613 50.8374 11.0932 50.6464C12.0056 50.3123 12.9181 50.0259 13.7825 49.7872V33.7961C13.7825 32.8892 14.5028 32.1731 15.3672 32.1731C16.2316 32.1731 16.952 32.8892 16.952 33.7961V48.8803C18.2966 48.5461 19.5932 48.2597 20.8898 48.021V33.7961C20.8898 32.8892 21.6102 32.1731 22.4746 32.1731C23.339 32.1731 24.0593 32.8892 24.0593 33.7961V47.496C25.5 47.305 26.9887 47.1618 28.4294 47.0663V35.4668C28.4294 32.0299 31.1667 29.2136 34.5282 29.2136C37.8898 29.2136 40.6271 32.0299 40.6271 35.4668V47.1618C42.1638 47.305 43.7006 47.496 45.2373 47.7346V33.7961C45.2373 32.8892 45.9576 32.1731 46.822 32.1731C47.6864 32.1731 48.4068 32.8892 48.4068 33.7961V48.3074C49.7034 48.5939 51 48.8803 52.3446 49.2621V33.7961C52.3446 32.8892 53.065 32.1731 53.9294 32.1731C54.7938 32.1731 55.5141 32.8892 55.5141 33.7961V50.2168C56.0424 50.4078 56.4266 50.5032 56.8588 50.6464ZM54.1695 52.8422C47.0141 50.4078 40.8192 49.5485 34 49.5008C33.952 49.5008 33.952 49.5008 33.952 49.5008H33.904C27.0847 49.5008 20.8418 50.36 13.7345 52.8422C9.70057 54.2265 3.74576 57.0429 0 59L7.97175 58.7136C7.97175 58.7136 12.774 55.5154 18.2486 53.3673C24.1554 51.0283 29.6299 50.6942 34 50.551C38.3701 50.6942 44.8051 51.0283 50.7119 53.3673C56.1864 55.5631 60.9887 58.7136 60.9887 58.7136L68 59C64.1582 57.0429 58.2034 54.2265 54.1695 52.8422Z" fill="black"/>
</svg>

<svg xmlns="http://www.w3.org/2000/svg" width="68" height="59" fill="none"><path fill="#000" d="m58.444 11.265-.145-4.582h-1.92v1.91h-1.97l.049-1.91h-1.921l.096 1.91h-2.017v-1.91h-1.921l-.048 1.91v2.72l-.096 9.69h9.748l.145-9.738Zm-3.122 6.731h-3.458v-4.63h3.458v4.63ZM6.627 23.82v1.909H63.15v-1.91H6.627Zm17-9.452.24 6.588H45.91v-6.683h-2.882v2.482l-3.745.382.047-2.864h-2.88l-.049 2.864h-3.938v-2.864h-2.881v2.864l-2.881-.382v-2.482l-3.074.095Zm-2.497-3.103-.144-4.582h-1.921v1.91h-1.969l.048-1.91h-1.92l.095 1.91h-2.017v-1.91h-1.92l-.049 1.91v2.72l.048 9.69h9.749v-9.738Zm-6.627 2.1h3.457v4.631h-3.457v-4.63ZM34.384 0 22.907 12.363H46.87L34.384 0ZM56.86 50.646c.864.287.864.669 1.825 1.05v-19.81l3.457-4.295-26.028-.191h-3.074l-25.451.19 2.929 4.297v19.332c.528-.19.096-.382.576-.573.913-.334 1.825-.62 2.69-.859v-15.99c0-.908.72-1.624 1.584-1.624.865 0 1.585.716 1.585 1.623V48.88a65.19 65.19 0 0 1 3.938-.859V33.796c0-.907.72-1.623 1.585-1.623.864 0 1.584.716 1.584 1.623v13.7c1.441-.191 2.93-.334 4.37-.43v-11.6c0-3.436 2.738-6.252 6.1-6.252 3.36 0 6.098 2.816 6.098 6.253v11.695c1.537.143 3.074.334 4.61.573V33.796c0-.907.72-1.623 1.585-1.623.864 0 1.585.716 1.585 1.623v14.511c1.296.287 2.593.573 3.938.955V33.796c0-.907.72-1.623 1.584-1.623.865 0 1.585.716 1.585 1.623v16.42c.528.192.913.287 1.345.43Zm-2.69 2.196C47.014 50.408 40.82 49.548 34 49.501h-.096c-6.82 0-13.062.859-20.17 3.341C9.701 54.227 3.747 57.042 0 59l7.972-.286s4.802-3.199 10.277-5.347c5.906-2.339 11.38-2.673 15.751-2.816 4.37.143 10.805.477 16.712 2.816 5.474 2.196 10.277 5.347 10.277 5.347L68 59c-3.842-1.957-9.797-4.773-13.83-6.158Z"/></svg>
